packages/components/bolt-icons/src/svgs/product/product/platform/mobility.svg

<?xml version="1.0" encoding="UTF-8" standalone="no"?>
<svg width="32px" height="32px" viewBox="0 0 32 32" version="1.1" xmlns="http://www.w3.org/2000/svg" xmlns:xlink="http://www.w3.org/1999/xlink">
    <!-- Generator: Sketch 47.1 (45422) - http://www.bohemiancoding.com/sketch -->
    <title>Icon/product/Platform/Mobility</title>
    <desc>Created with Sketch.</desc>
    <defs></defs>
    <g id="Symbols" stroke="none" stroke-width="1" fill="none" fill-rule="evenodd">
        <g id="Icon/product/Platform/Mobility" fill="#1F2555">
            <path d="M14.562,27.438 C13.853,26.73 13.771,25.917 14.312,25 C14.896,24.125 15.666,23.897 16.625,24.313 C17.625,24.688 18.021,25.375 17.812,26.376 C17.687,27.376 17.083,27.917 15.999,28 C15.416,28 14.937,27.813 14.562,27.438 L14.562,27.438 Z M24,22.001 L8,22.001 L8,28 C8,28.584 8.187,29.063 8.562,29.438 C8.937,29.813 9.416,30.001 10,30.001 L21.999,30.001 C22.583,30.001 23.062,29.813 23.437,29.438 C23.812,29.063 24,28.584 24,28 L24,22.001 Z M24,4.001 C24,3.417 23.812,2.938 23.437,2.563 C23.062,2.188 22.583,2.001 21.999,2.001 L10,2.001 C9.416,2.001 8.937,2.188 8.562,2.563 C8.187,2.938 8,3.417 8,4.001 L8,20.001 L24,20.001 L24,6.001 L24,4.001 Z M26,4.001 L26,28 C26,29.084 25.603,30.022 24.812,30.813 C24.021,31.605 23.083,32 21.999,32 L10,32 C8.916,32 7.978,31.605 7.187,30.813 C6.395,30.022 6,29.084 6,28 L6,4.001 C6,2.917 6.395,1.98 7.187,1.188 C7.978,0.397 8.916,0.001 10,0.001 L21.999,0.001 C23.083,0.001 24.021,0.397 24.812,1.188 C25.603,1.98 26,2.917 26,4.001 L26,4.001 Z" id="Page-1"></path>
        </g>
    </g>
</svg>

<svg id="b94f5788-f994-4de3-8bc3-c5c66f732e70" data-name="Layer 1" xmlns="http://www.w3.org/2000/svg" viewBox="0 0 20 32"><title>mobility</title><path id="fc214323-3076-4b82-9bfd-b41192da17fa" data-name="Page-1" d="M14.6,27.4a1.72,1.72,0,0,1-.2-2.4,1.7,1.7,0,0,1,2.3-.7,1.71,1.71,0,0,1,1.2,2.1c-.1,1-.7,1.5-1.8,1.6a1.75,1.75,0,0,1-1.5-.6ZM24,22H8v6a1.68,1.68,0,0,0,.6,1.4A2.25,2.25,0,0,0,10,30H22a1.68,1.68,0,0,0,1.4-.6A2.25,2.25,0,0,0,24,28ZM24,4a1.68,1.68,0,0,0-.6-1.4A2.25,2.25,0,0,0,22,2H10a1.68,1.68,0,0,0-1.4.6A2.25,2.25,0,0,0,8,4V20H24V4Zm2,0V28a4.1,4.1,0,0,1-4,4H10a3.78,3.78,0,0,1-2.8-1.2A3.78,3.78,0,0,1,6,28V4A3.78,3.78,0,0,1,7.2,1.2,3.78,3.78,0,0,1,10,0H22a3.78,3.78,0,0,1,2.8,1.2A3.78,3.78,0,0,1,26,4Z" transform="translate(-6)" fill="#1f2555" fill-rule="evenodd"/></svg>
